X:1
T:St. Faith, 75.75.77
T:St. Faith, 75.75.77
T:George Clement Martin, 1889
T:Public Domain Courtesy of the Cyber Hymnal™
C:George Clement Martin, 1889
Z:Public Domain
Z:Courtesy of the Cyber Hymnal™
%%score ( 1 2 ) ( 3 4 )
L:1/8
Q:1/4=110
M:none
K:C
V:1 treble 
V:2 treble 
V:3 bass 
V:4 bass 
V:1
 [CE]2 [CF]2 [CE]2 [CD]2 | [CG]2 [CF]2 [CE]4 | [CE]2 [DF]2 [CE]3 [B,D] | [B,D]8 | %4
 [CE]2 [DE]2 [CE]2 [FA]2 | [Ac]2 [^GB]2 A2 [AB][Ac] | [Ad]4 [^GB]4 | A6 |[M:3/4] [Ge]>[Ge] | %9
 [^Fe]3 [Fd] [Fc][DA] | [DG]4 [B,G][B,G] | [CG][Ec] [CE]2 [B,D]2 | C8 |] %13
V:2
 x8 | x8 | x8 | x8 | x8 | x4 A2 x2 | x8 | A6 |[M:3/4] x2 | x6 | x6 | x6 | C8 |] %13
V:3
 [C,G,]2 [C,A,]2 [C,G,]2 [C,F,]2 | [C,E,]2 [C,A,]2 [C,G,]4 | [C,G,]2 [B,,G,]2 [C,G,]3 [G,,G,] | %3
 [G,,G,]8 | [C,G,]2 [E,^G,]2 A,2 [F,C]2 | [E,E]2 [E,D]2 [F,C]2 [F,D][E,E] | [D,F]4 [E,D]4 | %7
 [A,,C]6 |[M:3/4] C>[B,C] | [A,C]3 [A,C] [D,C][D,C] | (C2 B,2) [F,G,][F,G,] | %11
 [E,G,][C,G,] [G,,G,]2 [G,,F,]2 | [C,E,]8 |] %13
V:4
 x8 | x8 | x8 | x8 | x4 A,2 x2 | x8 | x8 | x6 |[M:3/4] C3/2 x/ | x6 | G,4 x2 | x6 | x8 |] %13

